svgs/regular/inbox.svg

<svg xmlns="http://www.w3.org/2000/svg" viewBox="0 0 512 512"><!-- Font Awesome Pro 6.0.0-alpha2 by @fontawesome - https://fontawesome.com License - https://fontawesome.com/license (Commercial License) --><path d="M508.285 304.918L447.031 56.25C443.469 42 430.688 32 416 32H96C81.312 32 68.531 42 64.969 56.25L3.715 304.918C1.248 314.936 0 325.215 0 335.533V416C0 451.346 28.654 480 64 480H448C483.348 480 512 451.346 512 416V335.533C512 325.215 510.754 314.936 508.285 304.918ZM108.553 80H403.447L454.684 288H368C358.906 288 350.594 293.125 346.531 301.281L321.156 352H190.844L165.469 301.281C161.406 293.125 153.094 288 144 288H57.318L108.553 80ZM464 416C464 424.822 456.822 432 448 432H64C55.178 432 48 424.822 48 416V336H129.156L154.531 386.719C158.594 394.875 166.906 400 176 400H336C345.094 400 353.406 394.875 357.469 386.719L382.844 336H464V416Z"/></svg>

<svg xmlns="http://www.w3.org/2000/svg" viewBox="0 0 512 512"><!--! Font Awesome Pro 6.0.0-alpha3 by @fontawesome - https://fontawesome.com License - https://fontawesome.com/license (Commercial License) --><path d="M508.3 304.9l-61.25-248.7C443.5 41.1 430.7 31.1 416 31.1H96c-14.69 0-27.47 10-31.03 24.25L3.715 304.9C1.248 314.9 0 325.2 0 335.5V416c0 35.35 28.65 64 64 64h384c35.35 0 64-28.65 64-64v-80.47C512 325.2 510.8 314.9 508.3 304.9zM108.6 80h294.9L454.7 288H368c-9.094 0-17.41 5.125-21.47 13.28L321.2 352H190.8L165.5 301.3C161.4 293.1 153.1 288 144 288H57.32L108.6 80zM464 416c0 8.822-7.178 16-16 16H64c-8.822 0-16-7.178-16-16v-80h81.16l25.38 50.72C158.6 394.9 166.9 400 176 400h160c9.094 0 17.41-5.125 21.47-13.28L382.8 336H464V416z"/></svg>
